source_images/ic_set/ic_set_prosperity.svg

<svg xmlns:svg="http://www.w3.org/2000/svg" xmlns="http://www.w3.org/2000/svg" width="19" height="18" viewBox="0 0 19 18" version="1.1"><path d="m10.47 17.94-9.71-2.8c-0.22-0.09-0.26-0.21-0.3-0.32l0.04-6.84c-0.18-0.1-0.17-0.54 0-0.79 0.46-0.35 1.08-0.94 1.44-0.89 0.02 0 0.04 0.01 0.06 0.02 0.21-0.4 0.63-0.68 1.12-0.68 0.17 0 0.33 0.03 0.48 0.09 0.24-0.39 0.68-0.66 1.17-0.66 0.21 0 0.42 0.05 0.6 0.14 0.02-0.03 0.04-0.06 0.06-0.09l-1.79-3.49c-0.25-0.53-0.2-0.72-0.04-0.88 0.85-0.63 1.89-0.85 3.24-0.72 3.22 0.51 6.38 1.09 9.43 1.83 1.42 0.34 3.57 2.74 1.5 5.67l0.21 0.18 0.02 6.57c-0.02 0.22-0.11 0.38-0.29 0.47-0.02 0.1-6.2 2.97-6.68 3.22-0.2 0.04-0.36 0.04-0.56-0.03zm0.03-0.83-0.04-7.01C8.73 9.22 2.83 7.53 1.28 7.79c-0.05 0.56-0.02 5.98-0.05 6.67l9.27 2.66zm6.68-2.82-0.07-5.85c-2.1 0.13-4.12 0.87-6.11 1.81 0.08 1.65 0 4.92 0.01 6.78 0 0 0 0 0 0 0.19-0.01 6.17-2.81 6.17-2.74zm-4.95-3.91c0.25-0.68 1.34-0.75 1.59-0.16 0.15 0.36 0.3 0.61 0.45 0.85 0.27 0.39 0.66 0.26 0.62-0.27-0.18-1.25 0.1-1.69 0.7-1.72 0.65-0.04 1.18 0.57 0.94 2.45-0.17 0.97-1.01 1.63-2.02 1.66-1.5-0.29-2.58-1.99-2.29-2.8zm2.9 2.19c0.7-0.23 1.15-1.28 0.98-2.27-0.18-1.21-0.92-0.7-0.84-0.25 0.06 0.46 0.07 0.8-0.01 1.26-0.24 0.86-1.16 0.52-1.4 0.06-0.6-1.17-0.87-1.02-1.01-0.94-0.19 0.15-0.21 0.39-0.03 0.7 0.9 1.46 1.75 1.63 2.31 1.44zm-8.07-0.11-3.45-0.92c-0.5-0.08-0.25-0.93 0.08-0.76l0.59 0.16-0.01-1.52c0.02-0.23 0.14-0.37 0.47-0.34l1.36 0.38c0.29 0.08 0.29 0.3 0.3 0.74l0.04 1.28 0.64 0.18c0.45-0.05 0.55 0.96-0.01 0.79zm-1.72-1.47 0.01-0.98-0.44-0.09 0 0.97 0.43 0.1zM11.83 9.04c-0.03-0.08-0.05-0.17-0.06-0.25-0.11-0.06-0.23-0.09-0.36-0.09-0.37 0-0.69 0.26-0.78 0.6 0.1 0.04 0.2 0.09 0.29 0.13 0.31-0.14 0.61-0.27 0.9-0.39zm-0.8-0.68c-0.14-0.23-0.4-0.39-0.69-0.39-0.44 0-0.8 0.36-0.8 0.8 0 0.03 0 0.06 0.01 0.09 0.25 0.09 0.49 0.18 0.72 0.28 0.11-0.37 0.4-0.66 0.77-0.79zm2.6 0.02c-0.12-0.3-0.41-0.51-0.75-0.51-0.44 0-0.8 0.36-0.8 0.8 0 0.09 0.02 0.17 0.04 0.25 0.52-0.21 1.02-0.38 1.51-0.54zm-3.97-0.47c-0.16-0.27-0.45-0.44-0.79-0.44-0.48 0-0.88 0.38-0.92 0.85 0.44 0.14 0.87 0.28 1.29 0.43 0.01-0.34 0.17-0.64 0.42-0.84zm1.75 0.39c0.01 0 0.03 0 0.04 0 0.21-0.14 0.34-0.38 0.34-0.65 0-0.44-0.36-0.8-0.8-0.8-0.44 0-0.8 0.36-0.8 0.8 0 0.01 0 0.03 0 0.04 0.05-0.01 0.1-0.01 0.16-0.01 0.44 0 0.82 0.26 0.99 0.63 0.02 0 0.05 0 0.08 0zm-3.67-0.94c0-0.51-0.41-0.92-0.92-0.92-0.51 0-0.92 0.41-0.92 0.92 0 0.14 0.03 0.27 0.09 0.39 0.44 0.12 0.89 0.24 1.34 0.38 0.25-0.17 0.41-0.45 0.41-0.77zm2.55-0.62c-0.12-0.16-0.32-0.26-0.53-0.26-0.36 0-0.66 0.29-0.68 0.65 0.31 0.05 0.58 0.21 0.77 0.44 0.02-0.34 0.19-0.63 0.44-0.83zm-4.65-0.28c0-0.47-0.39-0.86-0.86-0.86-0.47 0-0.86 0.39-0.86 0.86 0 0.47 0.39 0.86 0.86 0.86 0.47 0 0.86-0.39 0.86-0.86zm2.61 0.81c0.14-0.08 0.3-0.13 0.48-0.15 0.03-0.32 0.16-0.57 0.39-0.76-0.11-0.24-0.35-0.4-0.62-0.4-0.34 0-0.62 0.25-0.67 0.57 0.15 0.2 0.26 0.43 0.29 0.67 0.04 0.03 0.08 0.05 0.13 0.07zm-4.85-0.81c0-0.12 0.02-0.24 0.05-0.36-0.1-0.04-0.21-0.06-0.32-0.06-0.47 0-0.86 0.39-0.86 0.86 0 0.03 0 0.06 0 0.09 0.37 0.04 0.83 0.12 1.35 0.22-0.14-0.22-0.22-0.47-0.22-0.75zm14.41 0.06c0.76-1.93-0.36-3.49-1.75-3.66-0.41-0.02-0.49 0.05-0.31 0.43 0.49 1.12 1 2.22 1.56 3.27 0.08 0.24 0.38 0.33 0.5-0.04zM6.81 6.05c0.2 0 0.39 0.05 0.57 0.13 0.02-0.08 0.03-0.16 0.03-0.24 0-0.47-0.39-0.86-0.86-0.86-0.33 0-0.61 0.18-0.76 0.45 0.18 0.19 0.3 0.44 0.35 0.71 0.2-0.12 0.43-0.19 0.67-0.19zm8.84-3.85c0.04-0.15-7.57-1.8-10.28-1.66-0.99 0.09-1.04 0.43-0.64 0.52 2.75 0.3 5.47 0.69 8.18 1.12 1.52 0.29 2.58 0.36 2.74 0.03z" fill="#000"/></svg>

<?xml version="1.0" standalone="no"?>
<!DOCTYPE svg PUBLIC "-//W3C//DTD SVG 1.1//EN" "http://www.w3.org/Graphics/SVG/1.1/DTD/svg11.dtd">
<svg xmlns:xlink="http://www.w3.org/1999/xlink" xmlns="http://www.w3.org/2000/svg" version="1.1" width="19px" height="18px" viewBox="0 0 19 18">
  <path d="M10.47 17.94L0.76 15.14C0.54 15.06 0.5 14.94 0.46 14.82L0.5 7.98C0.32 7.88 0.33 7.44 0.51 7.19C0.97 6.83 1.59 6.25 1.95 6.3C1.97 6.31 1.99 6.31 2.01 6.33C2.22 5.92 2.64 5.64 3.13 5.64C3.3 5.64 3.46 5.68 3.61 5.74C3.85 5.34 4.29 5.08 4.78 5.08C4.99 5.08 5.2 5.13 5.38 5.22C5.4 5.19 5.42 5.16 5.44 5.13L3.65 1.63C3.4 1.11 3.45 0.91 3.61 0.75C4.46 0.12 5.5 -0.09 6.85 0.04C10.06 0.54 13.23 1.12 16.28 1.86C17.7 2.2 19.85 4.6 17.78 7.53L17.99 7.71L18 14.29C17.99 14.5 17.9 14.66 17.71 14.75C17.69 14.85 11.51 17.73 11.03 17.97C10.83 18.01 10.67 18.01 10.47 17.94zM10.5 17.12L10.46 10.11C8.73 9.22 2.83 7.53 1.28 7.78C1.23 8.34 1.26 13.77 1.23 14.46L10.5 17.12zM17.18 14.3L17.11 8.46C15.01 8.58 12.99 9.32 11 10.27C11.08 11.92 11 15.19 11.01 17.04C11.01 17.04 11.01 17.04 11.01 17.04C11.2 17.03 17.18 14.23 17.18 14.3zM12.23 10.39C12.48 9.71 13.57 9.64 13.82 10.23C13.97 10.58 14.13 10.84 14.28 11.08C14.55 11.47 14.94 11.34 14.9 10.8C14.72 9.55 15 9.12 15.61 9.08C16.25 9.04 16.78 9.66 16.54 11.53C16.37 12.5 15.54 13.15 14.52 13.19C13.02 12.9 11.94 11.2 12.23 10.39zM15.13 12.58C15.83 12.34 16.28 11.3 16.11 10.31C15.93 9.1 15.19 9.61 15.27 10.06C15.33 10.52 15.35 10.86 15.26 11.32C15.02 12.17 14.11 11.83 13.86 11.38C13.26 10.21 13 10.36 12.86 10.44C12.67 10.59 12.65 10.83 12.83 11.14C13.72 12.6 14.57 12.76 15.13 12.58zM7.06 12.46L3.61 11.54C3.11 11.47 3.36 10.61 3.69 10.79L4.28 10.95L4.27 9.43C4.29 9.19 4.41 9.05 4.73 9.09L6.09 9.47C6.38 9.54 6.38 9.77 6.39 10.21L6.43 11.49L7.07 11.67C7.53 11.62 7.63 12.62 7.06 12.46zM5.34 10.99L5.35 10.01L4.91 9.92L4.91 10.89L5.34 10.99zM11.83 9.04C11.8 8.96 11.78 8.88 11.77 8.79C11.66 8.73 11.54 8.7 11.41 8.7C11.03 8.7 10.72 8.96 10.63 9.31C10.73 9.35 10.83 9.39 10.92 9.44C11.23 9.3 11.53 9.16 11.83 9.04zM11.03 8.37C10.89 8.13 10.63 7.98 10.34 7.98C9.9 7.98 9.54 8.34 9.54 8.78C9.54 8.81 9.54 8.84 9.55 8.87C9.79 8.96 10.03 9.06 10.26 9.15C10.37 8.78 10.66 8.49 11.03 8.37zM13.63 8.39C13.51 8.09 13.22 7.88 12.88 7.88C12.44 7.88 12.08 8.23 12.08 8.68C12.08 8.76 12.1 8.85 12.12 8.93C12.64 8.72 13.15 8.54 13.63 8.39zM9.66 7.92C9.49 7.65 9.2 7.47 8.87 7.47C8.38 7.47 7.99 7.85 7.95 8.33C8.39 8.46 8.82 8.61 9.24 8.76C9.25 8.42 9.41 8.12 9.66 7.92zM11.41 8.3C11.42 8.3 11.43 8.3 11.45 8.3C11.65 8.16 11.79 7.92 11.79 7.65C11.79 7.21 11.43 6.85 10.99 6.85C10.54 6.85 10.18 7.21 10.18 7.65C10.18 7.66 10.18 7.68 10.19 7.69C10.24 7.68 10.29 7.68 10.34 7.68C10.78 7.68 11.16 7.93 11.33 8.31C11.36 8.3 11.38 8.3 11.41 8.3zM7.74 7.37C7.74 6.86 7.32 6.45 6.82 6.45C6.31 6.45 5.9 6.86 5.9 7.37C5.9 7.51 5.93 7.64 5.98 7.76C6.42 7.88 6.87 8 7.32 8.14C7.57 7.97 7.74 7.69 7.74 7.37zM10.29 6.75C10.17 6.59 9.97 6.48 9.76 6.48C9.39 6.48 9.09 6.77 9.08 7.13C9.38 7.18 9.65 7.34 9.85 7.57C9.87 7.24 10.04 6.94 10.29 6.75zM5.64 6.46C5.64 5.99 5.26 5.6 4.78 5.6C4.31 5.6 3.92 5.99 3.92 6.46C3.92 6.94 4.31 7.32 4.78 7.32C5.26 7.32 5.64 6.94 5.64 6.46zM8.25 7.27C8.39 7.19 8.56 7.14 8.74 7.12C8.76 6.8 8.9 6.55 9.13 6.36C9.02 6.13 8.78 5.96 8.51 5.96C8.17 5.96 7.89 6.21 7.84 6.53C7.99 6.73 8.09 6.96 8.13 7.21C8.17 7.23 8.21 7.26 8.25 7.27zM3.4 6.46C3.4 6.34 3.42 6.22 3.45 6.11C3.35 6.07 3.24 6.04 3.13 6.04C2.65 6.04 2.27 6.43 2.27 6.9C2.27 6.93 2.27 6.96 2.27 6.99C2.64 7.04 3.1 7.11 3.62 7.21C3.48 7 3.4 6.74 3.4 6.46zM17.81 6.52C18.57 4.59 17.45 3.03 16.06 2.86C15.66 2.84 15.57 2.91 15.75 3.28C16.24 4.4 16.75 5.51 17.31 6.56C17.38 6.8 17.69 6.88 17.81 6.52zM6.82 6.05C7.02 6.05 7.21 6.09 7.38 6.18C7.4 6.1 7.42 6.02 7.42 5.94C7.42 5.46 7.03 5.08 6.55 5.08C6.23 5.08 5.94 5.26 5.8 5.53C5.97 5.72 6.1 5.96 6.14 6.23C6.34 6.12 6.57 6.05 6.82 6.05zM15.66 2.2C15.7 2.05 8.09 0.4 5.37 0.54C4.38 0.63 4.33 0.97 4.73 1.06C7.48 1.36 10.2 1.74 12.92 2.18C14.44 2.47 15.49 2.54 15.66 2.2z" stroke="none" fill="#000000"/>

</svg>
